build/category/ChatSolid.svg

<svg xmlns="http://www.w3.org/2000/svg" fill="none" viewBox="0 0 24 24" focusable="false"><path d="M0 0H24V24H0z"/><path fill="#74767B" fill-rule="evenodd" d="M4 8C4 6.34315 5.34315 5 7 5L17 5C18.6569 5 20 6.34315 20 8L20 14C20 15.6569 18.6569 17 17 17L9.52751 17L6.1121 19.7323C5.26091 20.4133 4 19.8073 4 18.7172L4 8ZM8.5 10C9.05228 10 9.5 10.4477 9.5 11C9.5 11.5523 9.05228 12 8.5 12C7.94772 12 7.5 11.5523 7.5 11C7.5 10.4477 7.94772 10 8.5 10ZM15.5 10C16.0523 10 16.5 10.4477 16.5 11C16.5 11.5523 16.0523 12 15.5 12C14.9477 12 14.5 11.5523 14.5 11C14.5 10.4477 14.9477 10 15.5 10ZM12 10C12.5523 10 13 10.4477 13 11C13 11.5523 12.5523 12 12 12C11.4477 12 11 11.5523 11 11C11 10.4477 11.4477 10 12 10Z"/></svg>

<svg xmlns="http://www.w3.org/2000/svg" fill="none" viewBox="0 0 24 24" focusable="false"><path fill="#74767B" fill-rule="evenodd" d="M4 8c0-1.66 1.34-3 3-3h10c1.65 0 3 1.34 3 3v6c0 1.65-1.35 3-3 3H9.52l-3.41 2.73c-.85.68-2.11.07-2.11-1.02zm4.5 2c.55 0 1 .44 1 1 0 .55-.45 1-1 1-.56 0-1-.45-1-1 0-.56.44-1 1-1m7 0c.55 0 1 .44 1 1 0 .55-.45 1-1 1-.56 0-1-.45-1-1 0-.56.44-1 1-1M12 10c.55 0 1 .44 1 1 0 .55-.45 1-1 1-.56 0-1-.45-1-1 0-.56.44-1 1-1"/></svg>
